X:1
T:Winster Wakes
M:2/2
L:1/4
K:G
 g d de/2-f/2| g d de/2-f/2| g d d c| B2 G z| g d de/2-f/2| g d de/2-f/2|\
 g d d c| B2 G z| c e ed/2-c/2| B d dc/2-B/2| A B/2B/2 c d| B2 G z/2 B/2|\
 c e ed/2-c/2| B d dc/2-B/2| A B c d| B2 G z|
